X:1
T:The Angels’ Sweet Refrain
T: Isaac Hickman Meredith
T:The Angels’ Sweet Refrain
T:Public Domain
T:Public Domain
T:Public Domain
T:Public Domain
C:Isaac Hickman Meredith
Z:Public Domain
%%score ( 1 2 ) 3
L:1/8
M:4/4
K:F
V:1 treble 
V:2 treble 
V:3 bass 
V:1
 A^GAG [CFA]2 [FAd]2 | [FAd]4 [CFA]4 | A^GAG [CFA]2 [CFAc]2 | [EBc]8 | BABA | [CEGB]2 [GBe]2 | %6
w: 1.~As the shep- herds watched at|On the|hills so far a- way, Sud-|a|light shone ’round them,|mid- night|
w: 2.~All the earth was clothed with|When there|came that an- gel throng, Ev-|was|filled with glad- ness|list- ened|
w: 3.~Though we could not hear the|Sing- ing|forth their glad re- frain; We|e-|brate His birth- day|comes to|
 [GBe]4 [CEB]4 | BABc [GBd]2 [GBe]2 | [CFA]8 | A^GAG [CFA]2 [FAd]2 | [FAd]4 [CFA]4 | %11
w: in- to|day. Then each heart was filled|der,|For they could not un- der-|the an-|
w: to the|song; Ne- ver had they heard|sic,|Or be- held such won- drous|ing all|
w: us a-|gain. We can, like the shep-|ship,|Lay our lives at Je- sus’|our hearts|
 AA^GA [D=FAd]2 [CDFA]2 | [B,DGB]8 | FFEF [=A,=DG]2 [A,DF]2 | [CFAc]4 [CFA]4 | %15
w: gel host that ga- thered Brought|such|mu- sic grand. * * *||
w: the earth with glo- ry, As|gel|brought that night. An- gels, sing|re- frain—|
w: we can a- dore Him And|gels’|song re- peat. * * *||
 AGAG [A,FA]2 [A,FG]2 | (z2 [FB]2 [EA]2 [EG]2) ||"^Refrain" z2 [FAc]2 (z2 [CFA]2) | dcAG [A,CF]4 | %19
w: ||||
w: Glo- ry in the high- est,|||ing earth your sto- ry|
w: ||||
 CFGA [FAc]2 [FAd]2 | [EBd]4 [B,CE]4 | BABc [GBd]2 [GBe]2 | [FAd]4 [FAc]4 | c=Bcd [GBe]2 [FGBd]2 | %24
w: |||||
w: Christ Who came to reign. Sing—|sweet song|a- gain, Earth and sky re-|sto- ry—|Glo- ry in the high- est,|
w: |||||
 ([EG]2 [FB]2 [EA]2 [EG]2) | (z2 [FAc]2) (z2 [CFA]2) | dcAG [A,CF]4 | AA^GA [D=FAd]2 [DFA]2 | %28
w: ||||
w: On * * *||* good will to men.||
w: ||||
 [DAc]4 [DGB]4 | FFEF [=A,=DG]2 [A,DF]2 | [CFAc]4 [CFA]4 | AGAG [CFA]2 [_B,CEG]2 | [A,CF]8 |] %33
w: |||||
w: |||||
w: |||||
V:2
 [CF]2 [CF]2 x4 | x8 | [CF]2 [CF]2 x4 | x8 | [CEG]2 [CEG]2 | x4 | x8 | [CEG]2 [CEG]2 x4 | x8 | %9
w: mid- night||den- ly||Turn- ing|||with won-||
w: beau- ty||ery heart||As they|||such mu-||
w: an- gels||can cel-||As it|||herds, wor-||
 [CF]2 [CF]2 x4 | x8 | [CD^F]2 [CDF]2 x4 | x8 | [_A,_D]2 [A,D]2 x4 | x8 | [=B,F]2 [B,F]2 x4 | c8 || %17
w: stand Why||to them||||||
w: light, Fill-||the an-||your sweet||glo- ry!|Tell|
w: feet; With||the an-||||||
 f4 c4 | [FA]2 [B,CE]2 x4 | [A,C]2 [CF]2 x4 | x8 | [CE]2 [CE]2 x4 | x8 | [EG]2 [EG]2 x4 | c8 | %25
w: ||||||||
w: the wait-|Of the|sing that||peat the||glo- ry!|earth|
w: ||||||||
 f4 c4 | [FA]2 [B,CE]2 x4 | [CD^F]2 [CDF]2 x4 | x8 | [_A,_D]2 [A,D]2 x4 | x8 | [=B,F]2 [B,F]2 x4 | %32
w: |||||||
w: peace, *|||||||
w: |||||||
 x8 |] %33
w: |
w: |
w: |
V:3
 [F,,F,]2 [C,,C,]2 [F,,F,]2 [C,,C,]2 | ([F,,F,]2 [C,,C,]2) ([F,,F,]2 [C,,C,]2) | %2
 [F,,F,]2 [C,,C,]2 [F,,F,]2 [C,,C,]2 | ([G,,G,]2 [C,,C,]2 [G,,G,]2 [C,,C,]2) | [G,,G,]2 [C,,C,]2 | %5
 [G,,G,]2 [C,,C,]2 | ([G,,G,]2 [C,,C,]2) ([G,,G,]2 [C,,C,]2) | %7
 [G,,G,]2 [C,,C,]2 [G,,G,]2 [C,,C,]2 | ([F,,F,]2 [E,,E,]2 [D,,D,]2 [C,,C,]2) | %9
 [F,,F,]2 [C,,C,]2 [F,,F,]2 [C,,C,]2 | ([F,,F,]2 [C,,C,]2) ([F,,F,]2 [C,,C,]2) | %11
 [D,,D,]2 [^E,,^F,]2 [D,,D,]2 [^F,,F,]2 | ([G,,G,]2 [D,,D,]2 [G,,G,]2 [D,,D,]2) | %13
 [_D,,_D,]2 [D,,D,]2 [D,,D,]2 [D,,D,]2 | ([C,,C,]2 [C,C]2) ([A,,A,]2 [F,,F,]2) | %15
 [D,,D,]2 [G,,,G,,]2 [D,,D,]2 [G,,,G,,]2 | (C,,2 D2 C2 B,2) || %17
 ([F,,F,]2 [C,,C,]2) ([F,,F,]2 [C,,C,]2) | [F,,F,]2 [C,,C,]2 ([F,,F,]2 [C,,C,]2) | %19
 [F,,F,]2 [C,,C,]2 [F,,F,]2 [C,,C,]2 | ([G,,G,]2 [C,,C,]2) ([G,,G,]2 [C,,C,]2) | %21
 [G,,G,]2 [C,,C,]2 [G,,G,]2 [C,,C,]2 | ([F,,F,]2 [C,,C,]2) ([F,,F,]2 [C,,C,]2) | %23
 [G,,G,]2 [G,,G,]2 [G,,,G,,]2 [G,,,G,,]2 | (C,,2 D2 C2 B,2) | %25
 ([F,,F,]2 [C,,C,]2) ([F,,F,]2 [C,,C,]2) | [F,,F,]2 [C,,C,]2 ([F,,F,]2 [C,,C,]2) | %27
 [D,,D,]2 [D,,D,]2 [D,,D,]2 [D,,D,]2 | ([^F,,^F,]2 [F,,F,]2) ([G,,G,]2 [G,,G,]2) | %29
 [_D,,_D,]2 [D,,D,]2 [D,,D,]2 [D,,D,]2 | ([C,,C,]2 [C,C]2) ([A,,A,]2 [F,,F,]2) | %31
 [D,,D,]2 [G,,,G,,]2 [C,,C,]2 [C,,C,]2 | ([F,,F,]2 [C,,C,]2 [F,,,F,,]4) |] %33

